X: 131
T: Trip to Oatelands
%R: jig
B: Chas & Sam Thompson "Twenty Four Country Dances for the Year 1778", London 1778, p.66 #1
F: http://www.vwml.org/browse/browse-collections-dance-tune-books/browse-thompsons1778#
Z: 2014 John Chambers <jc:trillian.mit.edu> (added dance description)
M: 6/8
L: 1/8
K: F
% - - - - - - - - - - - - - - - - - - - - - - - - - - - - -
A/B/ |\
c>dc cAF | c>dc cAF | fed cBA | BGG G2A/B/ |\
c>dc cAF | c>dc cAF | fed c>dB | AFF F2 :|
|: c |\
Tf3 Tg3 | agf edc | fed cBA | BGG G2c |\
fef gfg | agf edc | fed cdB | AFF F2 :|
% - - - - - - - - - - Dance description - - - - - - - - - -
%%begintext align
%% Turn Right hands round Left hands back again
%% .|. lead down two Cu: cast up one Cu: :|. set 3 &
%% 3 top and bottom then sideways .|: hand 6 quite
%% round :|:
%%endtext

%%sep 1 1 500
%%sep 1 1 500
